X: 32486
T: Plains Of Waterloo, The
R: barndance
M: 4/4
K: Dmajor
|:(a2{a//b//a//}a2) ge (f2{a//}|f2 f2) gf(d2|d4) ef g2|a4 (d2 d2)|
(d2 d)e d2 =c2|(A2 A2 A)B c2|d4 ef (g2|g2{aga}g)e c2 de|
dc A4 A2|A4 G2 A2|A4 A4|A4 A4:|
|:d2 =cA B4|c{d}c A2 B4|(G2 G2 G)A B=c|(d2 d2) (G2 G2)|
AG FA D4|A<D A<E T(F2 F)G|AB (=c2 =c4)|
A(F F2) AF G2|(G2{AGA}G2) FA (D2|D4 D4|D4 D4):|
A|:(d4 d4)|e2 =f4 e2|(d4 d2) cd|ec d2 c4|A4 GA A2|
(d4 d4)|e2 =f4 eA|(d4 d2) cd|ec (d2 d4)||
|:d2 =cA B4|c{d}c A2 B4|(G2 G2 G)A B=c|(d2 d2) (G2 G2)|
AG FA D4|A<D A<E T(F2 F)G|AB (=c2 =c4)|
A(F F2) AF G2|(G2{AGA}G2) FA (D2|D4 D4|D4 D4):|

